img/twitter.svg

<svg width="40" height="40" fill="none" xmlns="http://www.w3.org/2000/svg"><circle cx="20" cy="20" r="20" fill="#fff" fill-opacity=".3"/><g clip-path="url(#a)"><path d="M22.7 13.1c1.5-.5 2.6.3 3.2 1.1.5-.2 1.1-.4 1.7-.6 0 .8-.5 1.4-.8 1.6.7.2 1.2-.4 1.2-.4-.1.9-.9 1.7-1.4 1.9-.2 6.3-2.8 10.4-8.9 10.3h-.4c-.3 0-3.7-.4-4.3-1.8 2 .2 3.4-.4 4.1-1.1-.8-.3-2.4-.4-2.6-2.8.3.2.5.3 1.1.2-1.1-.8-2.3-1.5-2.2-3.5.3.3.9.5 1.2.4-.6-.2-1.8-3.1-.8-4.6 1.6 1.7 3.3 3.4 6.3 3.5.2-2.1 1-3.5 2.6-4.2Z" fill="#444"/></g><defs><clipPath id="a"><path fill="#fff" transform="translate(13 13)" d="M0 0h15v14H0z"/></clipPath></defs></svg>

<svg width="40" height="40" viewBox="0 0 40 40" fill="none" xmlns="http://www.w3.org/2000/svg">
<circle cx="20" cy="20" r="20" fill="white" fill-opacity="0.3"/>
<g clip-path="url(#clip0)">
<path d="M22.7 13.1C24.2 12.6 25.3 13.4 25.9 14.2C26.4 14 27 13.8 27.6 13.6C27.6 14.4 27.1 15 26.8 15.2C27.5 15.4 28 14.8 28 14.8C27.9 15.7 27.1 16.5 26.6 16.7C26.4 23 23.8 27.1 17.7 27C17.2 27 17.8 27 17.3 27C17 27 13.6 26.6 13 25.2C15 25.4 16.4 24.8 17.1 24.1C16.3 23.8 14.7 23.7 14.5 21.3C14.8 21.5 15 21.6 15.6 21.5C14.5 20.7 13.3 20 13.4 18C13.7 18.3 14.3 18.5 14.6 18.4C14 18.2 12.8 15.3 13.8 13.8C15.4 15.5 17.1 17.2 20.1 17.3C20.3 15.2 21.1 13.8 22.7 13.1Z" fill="#444444"/>
</g>
<defs>
<clipPath id="clip0">
<rect width="15" height="14" fill="white" transform="translate(13 13)"/>
</clipPath>
</defs>
</svg>
